X:110
T:The green linnet
T:Glenlivet
R:Reel
O:Ireland, Scotland
B:Krassen O'Neill's
B:O'Neill's 1262
B:Kerr's First p24
S:My arrangement from various sources
Z:Transcription, arrangement, chords:Mike Long
M:C|
L:1/8
K:C
"Am"A2ae cBAc|"G"~B2GB gdBG|"Am"~A2ae cBAc|"G"BGdB "Am"cAAB:|\
"Am"ABcd ecBA|"G"(3(BAG) Bd gdBG|
"Am"ABcd ecBA|"G"BG~G2 "Am"cAAB|\
"Am"ABcd ecBA|"G"(3(BAG) Bd gdBG|\
"Em"(3(ABc) Bd cedf|"(G)"edcB cABG|]
